poi/svg/1811.svg

<?xml version="1.0" encoding="UTF-8" standalone="no"?>
<svg
   xmlns:dc="http://purl.org/dc/elements/1.1/"
   xmlns:cc="http://creativecommons.org/ns#"
   xmlns:rdf="http://www.w3.org/1999/02/22-rdf-syntax-ns#"
   xmlns:svg="http://www.w3.org/2000/svg"
   xmlns="http://www.w3.org/2000/svg"
   xmlns:sodipodi="http://sodipodi.sourceforge.net/DTD/sodipodi-0.dtd"
   xmlns:inkscape="http://www.inkscape.org/namespaces/inkscape"
   inkscape:version="1.0 (4035a4fb49, 2020-05-01)"
   sodipodi:docname="1811.svg"
   id="svg20"
   version="1.2"
   viewBox="0 0 42.519639 42.519639"
   height="14.999999mm"
   width="14.999999mm">
  <metadata
     id="metadata24">
    <rdf:RDF>
      <cc:Work
         rdf:about="">
        <dc:format>image/svg+xml</dc:format>
        <dc:type
           rdf:resource="http://purl.org/dc/dcmitype/StillImage" />
        <dc:title>Qt SVG Document</dc:title>
      </cc:Work>
    </rdf:RDF>
  </metadata>
  <sodipodi:namedview
     inkscape:current-layer="svg20"
     inkscape:window-maximized="0"
     inkscape:window-y="0"
     inkscape:window-x="0"
     inkscape:cy="28.346482"
     inkscape:cx="28.346482"
     inkscape:zoom="5.8410537"
     showgrid="false"
     id="namedview22"
     inkscape:window-height="480"
     inkscape:window-width="1034"
     inkscape:pageshadow="2"
     inkscape:pageopacity="0"
     guidetolerance="10"
     gridtolerance="10"
     objecttolerance="10"
     borderopacity="1"
     bordercolor="#666666"
     pagecolor="#ffffff" />
  <title
     id="title2">Qt SVG Document</title>
  <desc
     id="desc4">Generated with Qt</desc>
  <defs
     id="defs6" />
  <g
     transform="translate(5.25984,5.25984)"
     id="g18"
     stroke-linejoin="bevel"
     stroke-linecap="square"
     fill-rule="evenodd"
     stroke-width="1"
     stroke="#000000"
     fill="none">
    <g
       id="g10"
       font-style="normal"
       font-weight="400"
       font-size="7.8px"
       font-family="'MS Shell Dlg 2'"
       stroke="none"
       fill-opacity="1"
       fill="#a61215">
      <path
         id="path8"
         d="M 37.2598,16 C 37.2598,27.7415 27.7415,37.2598 16,37.2598 4.25851,37.2598 -5.25984,27.7415 -5.25984,16 -5.25984,4.25851 4.25851,-5.25984 16,-5.25984 27.7415,-5.25984 37.2598,4.25851 37.2598,16"
         fill-rule="evenodd"
         vector-effect="non-scaling-stroke" />
    </g>
    <g
       id="g14"
       font-style="normal"
       font-weight="400"
       font-size="7.8px"
       font-family="'MS Shell Dlg 2'"
       transform="translate(16.5669,12.0315)"
       stroke="none"
       fill-opacity="0.94902"
       fill="#ffffff">
      <path
         id="path12"
         d="M 11.2661,1.69531 V 4.52979 L 7.36084,7.07031 11.2661,5.78955 V 9.52686 L 7.61279,11.2905 11.2661,10.0308 v 5.081 l -0.5879,-2.9604 v 3.2124 l -9.25925,-0.5879 0.35693,-0.084 -0.5249,0.084 h -6.82373 l -0.60889,0.3359 h -1.02881 -1.42773 l -3.12842,-0.3359 -0.5249,-4.2202 1.3437,-0.77689 h -1.8686 l 1.8686,-5.33301 -1.6796,2.87647 0.8608,-4.43018 -0.273,-1.19678 3.14946,-3.12842 -3.56936,0.944829 1.5117,-2.372559 3.21245,-3.82129 6.52978,-1.34375 2.89746,0.16797 -3.48535,4.22021 5.45899,-4.38818 4.22021,0.98682 -3.40136,4.01025 3.82128,-3.2334 1.46973,3.56934 -3.14941,3.569335 2.37256,-1.973635 h 1.36476 l 0.9028,2.79248 M 6.29004,13.3481 6.54199,13.2642 5.26123,7.97314 V 4.65576 L 4.65234,5.18066 5.07227,2.22021 3.74951,1.69531 2.63672,-0.845215 0.26416,-1.34912 2.36377,-3.72168 -0.155762,-2.16797 -2.78027,-1.51709 -5.76172,-0.236328 -7.9873,3.41699 -6.43359,1.7793 -7.73535,7.88916 -8.47021,8.49805 -7.4834,8.33008 l -1.23877,2.79252 0.60889,0.4199 0.46191,3.1494 3.14942,-1.6797 6.10986,-0.084 4.68213,0.4199"
         fill-rule="evenodd"
         vector-effect="none" />
    </g>
    <g
       id="g16"
       font-style="normal"
       font-weight="400"
       font-size="7.8px"
       font-family="'MS Shell Dlg 2'"
       stroke="none"
       fill-opacity="1"
       fill="#a61215" />
  </g>
</svg>

<?xml version="1.0" encoding="UTF-8" standalone="no"?>
<svg width="11.2889mm" height="11.2889mm"
 viewBox="0 0 32 32"
 xmlns="http://www.w3.org/2000/svg" xmlns:xlink="http://www.w3.org/1999/xlink"  version="1.2" baseProfile="tiny">
<title>Qt SVG Document</title>
<desc>Generated with Qt</desc>
<defs>
</defs>
<g fill="none" stroke="black" stroke-width="1" fill-rule="evenodd" stroke-linecap="square" stroke-linejoin="bevel" >

<g fill="#a61215" fill-opacity="1" stroke="none" transform="matrix(1,0,0,1,0,0)"
font-family="MS Shell Dlg 2" font-size="7.8" font-weight="400" font-style="normal" 
>
<path vector-effect="non-scaling-stroke" fill-rule="evenodd" d="M37.2598,16 C37.2598,27.7415 27.7415,37.2598 16,37.2598 C4.25851,37.2598 -5.25984,27.7415 -5.25984,16 C-5.25984,4.25851 4.25851,-5.25984 16,-5.25984 C27.7415,-5.25984 37.2598,4.25851 37.2598,16 "/>
</g>

<g fill="#ffffff" fill-opacity="0.94902" stroke="none" transform="matrix(1,0,0,1,16.5669,12.0315)"
font-family="MS Shell Dlg 2" font-size="7.8" font-weight="400" font-style="normal" 
>
<path vector-effect="none" fill-rule="evenodd" d="M11.2661,1.69531 L11.2661,4.52979 L7.36084,7.07031 L11.2661,5.78955 L11.2661,9.52686 L7.61279,11.2905 L11.2661,10.0308 L11.2661,15.1118 L10.6782,12.1514 L10.6782,15.3638 L1.41895,14.7759 L1.77588,14.6919 L1.25098,14.7759 L-5.57275,14.7759 L-6.18164,15.1118 L-7.21045,15.1118 L-8.63818,15.1118 L-11.7666,14.7759 L-12.2915,10.5557 L-10.9478,9.77881 L-12.8164,9.77881 L-10.9478,4.4458 L-12.6274,7.32227 L-11.7666,2.89209 L-12.0396,1.69531 L-8.89014,-1.43311 L-12.4595,-0.488281 L-10.9478,-2.86084 L-7.73535,-6.68213 L-1.20557,-8.02588 L1.69189,-7.85791 L-1.79346,-3.6377 L3.66553,-8.02588 L7.88574,-7.03906 L4.48438,-3.02881 L8.30566,-6.26221 L9.77539,-2.69287 L6.62598,0.876465 L8.99854,-1.09717 L10.3633,-1.09717 L11.2661,1.69531 M6.29004,13.3481 L6.54199,13.2642 L5.26123,7.97314 L5.26123,4.65576 L4.65234,5.18066 L5.07227,2.22021 L3.74951,1.69531 L2.63672,-0.845215 L0.26416,-1.34912 L2.36377,-3.72168 L-0.155762,-2.16797 L-2.78027,-1.51709 L-5.76172,-0.236328 L-7.9873,3.41699 L-6.43359,1.7793 L-7.73535,7.88916 L-8.47021,8.49805 L-7.4834,8.33008 L-8.72217,11.1226 L-8.11328,11.5425 L-7.65137,14.6919 L-4.50195,13.0122 L1.60791,12.9282 L6.29004,13.3481"/>
</g>

<g fill="#a61215" fill-opacity="1" stroke="none" transform="matrix(1,0,0,1,0,0)"
font-family="MS Shell Dlg 2" font-size="7.8" font-weight="400" font-style="normal" 
>
</g>
</g>
</svg>
